X:308
L:1/8
Q:1/8=160
M:6/8
K:D
 F | DFF AFF | BFF AFE | DFF dFF | EDE GFE | DFF AFF | BFF ABc | dcd ege | fdd d2 :| B | Add fdd | 
 add fdd | A2 g gfg | ede gfe |1 Add fdd | add ege | fed cAG | Add d2 :|2 def gfg | a2 g ege | 
 fed cAG | Add d3 |]

